packages/core/src/svgs/giv.svg

<svg width="24" height="24" viewBox="0 0 24 24" fill="none" xmlns="http://www.w3.org/2000/svg">
<g clip-path="url(#clip0_31_10823)">
<path d="M0 0H24V24H0V0Z" fill="#F0F3FA"/>
<path d="M12.1672 5.14307L12.3558 5.15592L12.7287 5.18592C13.8216 5.30218 14.8701 5.68158 15.7844 6.29164L15.2015 6.8745L15.103 6.97307L14.8158 7.25592C14.8072 7.26043 14.7977 7.26278 14.788 7.26278C14.7783 7.26278 14.7687 7.26043 14.7601 7.25592C13.7128 6.64262 12.4917 6.39394 11.288 6.54881C10.0842 6.70369 8.96583 7.25337 8.10789 8.1118C7.24995 8.97023 6.70091 10.0889 6.54672 11.2928C6.39254 12.4966 6.64192 13.7176 7.25581 14.7645C7.26438 14.7816 7.26438 14.8074 7.25581 14.8159L6.29581 15.7759L6.28724 15.7845H6.28296L6.25296 15.7416L6.19296 15.6516C5.56375 14.6534 5.2033 13.5095 5.14658 12.3309C5.08987 11.1523 5.33882 9.97911 5.86927 8.92511C6.39972 7.87111 7.19365 6.97214 8.174 6.31548C9.15435 5.65882 10.2878 5.26675 11.4644 5.17735L11.7644 5.15164L11.8287 5.14307H12.1672ZM18.853 12.1674C18.853 12.2274 18.853 12.2874 18.8444 12.3516C18.7994 13.3905 18.515 14.4049 18.0131 15.3156C17.5113 16.2263 16.8057 17.0087 15.9515 17.6016C14.7431 18.4784 13.2731 18.9196 11.7815 18.8531C10.0687 18.8095 8.43667 18.1153 7.21724 16.9116C7.20438 16.8988 7.20438 16.8559 7.21724 16.8431C8.80724 15.2488 10.4015 13.6502 12.0001 12.0602C12.0377 12.0259 12.0864 12.0062 12.1372 12.0045H18.8572V12.1674H18.853ZM15.7244 8.61021C15.5073 8.87334 15.4036 9.21194 15.4362 9.55151C15.4687 9.89109 15.6348 10.2038 15.898 10.4209C16.1611 10.638 16.4997 10.7417 16.8393 10.7091C17.1788 10.6766 17.4916 10.5105 17.7087 10.2474C17.9258 9.98365 18.0292 9.64451 17.9963 9.30453C17.9633 8.96456 17.7967 8.65159 17.533 8.4345C17.2693 8.2174 16.9301 8.11394 16.5901 8.1469C16.2502 8.17985 15.9372 8.34651 15.7201 8.61021H15.7244Z" fill="#121B4B"/>
</g>
<defs>
<clipPath id="clip0_31_10823">
<rect width="24" height="24" fill="white"/>
</clipPath>
</defs>
</svg>

<svg xmlns="http://www.w3.org/2000/svg" width="24" height="24" fill="none" viewBox="0 0 24 24"><g clip-path="url(#a)"><path fill="#F0F3FA" d="M0 0h24v24H0z"/><path fill="#121B4B" d="m12.167 5.143.189.013.373.03a6.8 6.8 0 0 1 3.055 1.106l-.583.583-.098.098-.287.283a.06.06 0 0 1-.056 0 5.486 5.486 0 0 0-7.504 7.509c.008.017.008.042 0 .05l-.96.96-.009.01h-.004l-.03-.043-.06-.09a6.844 6.844 0 0 1 5.271-10.475l.3-.025.065-.009zm6.686 7.024c0 .06 0 .12-.009.185a6.75 6.75 0 0 1-2.893 5.25 6.6 6.6 0 0 1-4.17 1.251 6.74 6.74 0 0 1-4.564-1.941c-.013-.013-.013-.056 0-.069C8.807 15.25 10.402 13.65 12 12.06a.2.2 0 0 1 .137-.056h6.72v.163zM15.724 8.61a1.286 1.286 0 1 0 .866-.463c-.34.033-.653.2-.87.463z"/></g><defs><clipPath id="a"><path fill="#fff" d="M0 0h24v24H0z"/></clipPath></defs></svg>
